X: 1
T: Brännvinslåt
S: efter Carl Emil Palmberg
N: "P [Carl Emil Palmberg?] har lärt den av [[!Hins Anders]]"
N: Finns på SMUS
R: Polska
Z: Håkan Lidén, 2009-02-04
O: Orsa, Dalarna
M: 3/4
L: 1/8
K: Gmix
[D2-G,2-] | [D2G,2] G3 A | "*"B3 A ^FA | AG G3 G | G2 z2 =B2 | d3 ^c de |
f3 e =ce | ed d3 d | d2 z2 :: d2- | d2 _B3 B | _B2 c2 d2 | 
dc c3 c | c2 d2 e2 | d3 B GA | _B3 A =FA | AG G3 G | G2 z2 :|]

